logos/ios.svg

<?xml version="1.0" encoding="UTF-8"?>
<svg width="257px" height="128px" viewBox="0 0 257 128" version="1.1" xmlns="http://www.w3.org/2000/svg" xmlns:xlink="http://www.w3.org/1999/xlink" preserveAspectRatio="xMidYMid">
    <g>
        <path d="M1.86210445,124.978162 L23.0319472,124.978162 L23.0319472,34.8584381 L1.86210445,34.8584381 L1.86210445,124.978162 Z M12.4045843,23.0401001 C19.0361301,23.0401001 24.2222693,17.938844 24.2222693,11.5626004 C24.2222693,5.10103842 19.0361301,0 12.4045843,0 C5.85813916,0 0.672,5.10125607 0.672,11.5626004 C0.672,17.9390617 5.85813916,23.0401001 12.4045843,23.0401001 Z M93.5158182,0.254431622 C57.7234485,0.254431622 35.2773123,24.6550553 35.2773123,63.6795119 C35.2773123,102.703969 57.721272,127.019709 93.5158182,127.019709 C129.223305,127.019709 151.669441,102.703969 151.669441,63.6795119 C151.669441,24.6550553 129.225481,0.254431622 93.5158182,0.254431622 Z M93.5158182,18.958747 C115.365596,18.958747 129.308188,36.3027565 129.308188,63.6790766 C129.308188,90.9700784 115.365161,108.314523 93.5158182,108.314523 C71.5811571,108.314523 57.7234485,90.9705137 57.7234485,63.6790766 C57.7234485,36.3031918 71.5815924,18.958747 93.5158182,18.958747 Z M160.599577,90.4607798 C161.534793,113.076682 180.068929,127.019274 208.295168,127.019274 C237.967249,127.019274 256.672,112.395876 256.672,89.1004739 C256.672,70.8214445 246.12952,60.5340493 221.219163,54.8381763 L207.105934,51.6073953 C192.057468,48.0366466 185.851208,43.2755759 185.851208,35.1137403 C185.851208,24.9114458 195.203366,18.1099161 209.061292,18.1099161 C223.08942,18.1099161 232.695792,24.9965465 233.716565,36.4740462 L254.631323,36.4740462 C254.121198,14.8791351 236.267193,0.255084569 209.231929,0.255084569 C182.535109,0.255084569 163.575709,14.9633653 163.575709,36.7286955 C163.575709,54.2426888 174.288173,65.1253539 196.902116,70.3119284 L212.800719,74.0528785 C228.274253,77.7087279 234.565614,82.8097663 234.565614,91.6517549 C234.565614,101.854049 224.278219,109.165748 209.485925,109.165748 C194.52256,109.165748 183.215697,101.769166 181.855391,90.4614328 L160.600666,90.4614328 L160.599577,90.4607798 Z" fill="#000000"></path>
    </g>
</svg>

<svg width="257" height="128" xmlns="http://www.w3.org/2000/svg" preserveAspectRatio="xMidYMid">
	<path d="M1.862 124.978h21.17v-90.12H1.862v90.12ZM12.405 23.04c6.631 0 11.817-5.101 11.817-11.477C24.222 5.1 19.036 0 12.405 0 5.858 0 .672 5.101.672 11.563c0 6.376 5.186 11.477 11.733 11.477ZM93.515.254c-35.792 0-58.238 24.401-58.238 63.426 0 39.024 22.444 63.34 58.239 63.34 35.707 0 58.153-24.316 58.153-63.34 0-39.025-22.444-63.426-58.153-63.426Zm0 18.705c21.85 0 35.793 17.344 35.793 44.72 0 27.291-13.943 44.636-35.792 44.636-21.935 0-35.793-17.344-35.793-44.636 0-27.376 13.859-44.72 35.793-44.72ZM160.6 90.46c.935 22.616 19.469 36.558 47.695 36.558 29.672 0 48.377-14.623 48.377-37.919 0-18.279-10.542-28.566-35.453-34.262l-14.113-3.23c-15.049-3.571-21.255-8.332-21.255-16.494 0-10.203 9.352-17.004 23.21-17.004 14.028 0 23.635 6.887 24.656 18.364h20.914c-.51-21.595-18.364-36.219-45.4-36.219-26.696 0-45.655 14.708-45.655 36.474 0 17.514 10.712 28.396 33.326 33.583l15.899 3.74c15.473 3.657 21.765 8.758 21.765 17.6 0 10.202-10.288 17.514-25.08 17.514-14.963 0-26.27-7.397-27.63-18.705H160.6Z"/>
</svg>
